round/svg/train.svg

<svg xmlns="http://www.w3.org/2000/svg" width="24" height="24"><path fill="none" d="M0 0h24v24H0V0z"/><path d="M12 2c-4 0-8 .5-8 4v9.5C4 17.43 5.57 19 7.5 19l-1.15 1.15a.5.5 0 0 0 .36.85H7.8c.13 0 .26-.05.35-.15L10 19h4l1.85 1.85c.09.09.22.15.35.15h1.09c.45 0 .67-.54.35-.85L16.5 19c1.93 0 3.5-1.57 3.5-3.5V6c0-3.5-4-4-8-4zM7.5 17c-.83 0-1.5-.67-1.5-1.5S6.67 14 7.5 14s1.5.67 1.5 1.5S8.33 17 7.5 17zm3.5-7H6V6h5v4zm5.5 7c-.83 0-1.5-.67-1.5-1.5s.67-1.5 1.5-1.5 1.5.67 1.5 1.5-.67 1.5-1.5 1.5zm1.5-7h-5V6h5v4z" fill="currentColor"/></svg>

<?xml version="1.0" encoding="utf-8"?>
<!-- Generator: Adobe Illustrator 19.1.0, SVG Export Plug-In . SVG Version: 6.00 Build 0)  -->
<svg version="1.1" xmlns="http://www.w3.org/2000/svg" xmlns:xlink="http://www.w3.org/1999/xlink" x="0px" y="0px" width="24px"
	 height="24px" viewBox="0 0 24 24" enable-background="new 0 0 24 24" xml:space="preserve">
<g id="Bounding_Boxes">
	<path fill="none" d="M0,0h24v24H0V0z"/>
</g>
<g id="Rounded" fill="currentColor">
	<path d="M12,2C8,2,4,2.5,4,6v9.5C4,17.43,5.57,19,7.5,19l-1.15,1.15C6.04,20.46,6.26,21,6.71,21h1.09c0.13,0,0.26-0.05,0.35-0.15
		L10,19h4l1.85,1.85c0.09,0.09,0.22,0.15,0.35,0.15h1.09c0.45,0,0.67-0.54,0.35-0.85L16.5,19c1.93,0,3.5-1.57,3.5-3.5V6
		C20,2.5,16,2,12,2z M7.5,17C6.67,17,6,16.33,6,15.5C6,14.67,6.67,14,7.5,14S9,14.67,9,15.5C9,16.33,8.33,17,7.5,17z M11,10H6V6h5
		V10z M16.5,17c-0.83,0-1.5-0.67-1.5-1.5c0-0.83,0.67-1.5,1.5-1.5s1.5,0.67,1.5,1.5C18,16.33,17.33,17,16.5,17z M18,10h-5V6h5V10z"
		/>
</g>
</svg>
